libs/ui/packages/crypto-icons/src/svg/BPT.svg

<svg width="24" height="24" viewBox="0 0 24 24" fill="none">
<path d="M19.413 15.5531C19.3408 15.7018 19.2614 15.847 19.1752 15.9881C19.1175 16.0916 19.062 16.1951 19.0012 16.2933C18.9735 16.3391 18.951 16.3863 18.9233 16.4306H18.9142C18.332 17.3558 17.5699 18.1548 16.6733 18.7803C15.7767 19.4058 14.7637 19.845 13.6943 20.072C12.6249 20.299 11.5209 20.3092 10.4475 20.1019C9.37409 19.8945 8.3532 19.474 7.44525 18.8651C7.40775 18.8396 7.3755 18.8118 7.33875 18.7871C7.19682 18.6953 7.05941 18.5966 6.927 18.4916C6.71752 18.332 6.5172 18.1607 6.327 17.9786C6.23605 17.8944 6.14727 17.8078 6.06075 17.7191C5.96775 17.6238 5.88675 17.5316 5.79225 17.4243C5.69725 17.3175 5.60473 17.2084 5.51475 17.0973C5.44438 17.0074 5.37611 16.9159 5.31 16.8228C5.21798 16.6965 5.12945 16.5677 5.0445 16.4366C4.98975 16.3511 4.93875 16.2641 4.887 16.1756C4.80226 16.0344 4.72247 15.8903 4.64775 15.7436C4.6035 15.6566 4.56225 15.5681 4.521 15.4796C4.45182 15.3303 4.38605 15.1796 4.32375 15.0273C4.28625 14.9328 4.2525 14.8368 4.21875 14.7408C4.167 14.5908 4.116 14.4341 4.07175 14.2871C4.04175 14.1806 4.023 14.0793 3.99 13.9698C3.95247 13.8233 3.91921 13.6758 3.89025 13.5273C3.87525 13.4148 3.8505 13.2963 3.84 13.1898C3.81812 13.0428 3.79986 12.8952 3.78525 12.7473C3.77475 12.6311 3.762 12.5148 3.762 12.3978C3.75 12.2508 3.75 12.1031 3.75 11.9553C3.75 11.8428 3.759 11.7303 3.759 11.6171C3.77094 11.3561 3.79496 11.0958 3.831 10.8371C3.90488 10.3096 4.02946 9.79041 4.203 9.28682C4.26675 9.10232 4.338 8.91932 4.41675 8.73707C4.434 8.69582 4.45425 8.64557 4.46475 8.61182C4.4769 8.57466 4.49742 8.54079 4.52475 8.51282C4.602 8.34632 4.6875 8.18132 4.7775 8.01782C4.82025 7.92632 4.872 7.83632 4.92525 7.74782C4.96275 7.68332 4.98825 7.62257 5.03775 7.55207C5.08575 7.48082 5.142 7.40732 5.19225 7.33382C5.25657 7.2329 5.32487 7.13457 5.397 7.03907C5.4915 6.91157 5.58975 6.78782 5.69175 6.66707C5.87039 6.45586 6.05937 6.25361 6.258 6.06107C6.3315 5.99207 6.40425 5.92232 6.47925 5.85632C6.68149 5.68282 6.88935 5.51598 7.1025 5.35607C7.2435 5.25857 7.3875 5.15957 7.533 5.06132C7.61054 5.01041 7.68931 4.96139 7.76925 4.91432C7.917 4.82882 8.064 4.74632 8.21175 4.66907C8.5453 4.49635 8.89066 4.34748 9.24525 4.22357C9.61497 4.09135 9.99402 3.98681 10.3792 3.91082C10.6315 3.86157 10.8857 3.82304 11.1412 3.79532C11.3077 3.77732 11.4758 3.76532 11.6453 3.75782C11.7368 3.75032 11.8298 3.75032 11.9228 3.75032C12.1894 3.7471 12.456 3.75762 12.7215 3.78182C13.1535 3.81915 13.5817 3.8919 14.0018 3.99932C14.109 4.02782 14.217 4.05782 14.3243 4.08932C14.4818 4.13432 14.6295 4.18307 14.7772 4.23707C14.8875 4.27682 14.9985 4.31957 15.1073 4.36532C15.1897 4.39982 15.2738 4.42607 15.3563 4.46282V4.47482C16.3585 4.91366 17.2623 5.54929 18.0143 6.34402C18.7662 7.13874 19.3509 8.07638 19.7336 9.10131C20.1164 10.1262 20.2894 11.2176 20.2424 12.3107C20.1955 13.4037 19.9295 14.4762 19.4603 15.4646C19.4453 15.4961 19.4273 15.5223 19.413 15.5531ZM8.871 18.9281V18.9266C10.5551 19.6811 12.456 19.7979 14.2199 19.2553C15.9837 18.7126 17.4902 17.5475 18.459 15.9768C18.513 15.8868 18.564 15.7938 18.615 15.7023C18.6855 15.5673 18.765 15.4368 18.8333 15.2898C19.2867 14.3573 19.5437 13.3416 19.5881 12.3057C19.6326 11.2697 19.4636 10.2357 19.0917 9.26781C18.7198 8.29991 18.1529 7.4188 17.4262 6.67918C16.6994 5.93956 15.8284 5.35722 14.8673 4.96832C14.7701 4.92691 14.6718 4.88815 14.5725 4.85207C14.3364 4.76826 14.0966 4.69494 13.854 4.63232C13.4617 4.53208 13.0619 4.4641 12.6585 4.42907L12.4065 4.41107C12.2437 4.40357 12.0825 4.39982 11.9213 4.39982H11.6678C11.511 4.40657 11.3558 4.41782 11.2005 4.43357C11.1068 4.44407 11.0138 4.45607 10.9215 4.46882C10.6718 4.50261 10.4242 4.55019 10.1797 4.61132C9.93349 4.67058 9.69063 4.74319 9.45225 4.82882C9.3465 4.86482 9.2445 4.90382 9.14625 4.94357C8.92735 5.03305 8.71217 5.13139 8.50125 5.23832C8.28714 5.3492 8.07794 5.46931 7.87425 5.59832C7.7369 5.68371 7.60351 5.7753 7.4745 5.87282C7.407 5.91857 7.3395 5.96807 7.2735 6.01982C7.07673 6.17544 6.88752 6.34038 6.7065 6.51407C6.59625 6.62507 6.48825 6.73757 6.38175 6.85157C6.21413 7.03528 6.0552 7.22674 5.9055 7.42532C5.74991 7.63461 5.60425 7.8511 5.469 8.07407C5.42025 8.15507 5.376 8.23607 5.33025 8.31707C5.24025 8.46857 5.16675 8.62232 5.09325 8.78207C4.95375 9.08322 4.83399 9.39312 4.73475 9.70982C4.65201 9.95299 4.58512 10.2013 4.5345 10.4531C4.50225 10.6106 4.47525 10.7703 4.4535 10.9293C4.4415 11.0208 4.428 11.1138 4.41975 11.2053C4.40475 11.3531 4.38825 11.5001 4.38825 11.6478C4.37925 11.7483 4.37925 11.8503 4.37925 11.9516C4.37925 12.0918 4.39125 12.2313 4.39125 12.3716C4.40421 12.6151 4.42874 12.8579 4.46475 13.0991C4.48425 13.2003 4.50075 13.2963 4.5195 13.4051C4.5465 13.5438 4.57875 13.6826 4.6125 13.8213C4.6365 13.9151 4.65975 14.0096 4.6875 14.1056C4.72875 14.2481 4.776 14.3883 4.82625 14.5286C4.857 14.6141 4.88625 14.7011 4.92075 14.7866C4.977 14.9283 5.0385 15.0656 5.09625 15.2111C5.1345 15.2921 5.17125 15.3738 5.2125 15.4533C5.286 15.5876 5.35725 15.7203 5.43375 15.8508C5.484 15.9326 5.53125 16.0121 5.5815 16.0916C5.658 16.2123 5.742 16.3301 5.826 16.4486C5.88825 16.5341 5.93325 16.6046 6.015 16.7021C6.096 16.7996 6.1875 16.9053 6.267 16.9968C6.3465 17.0883 6.435 17.1873 6.5145 17.2698C6.594 17.3523 6.65625 17.4108 6.759 17.5083C6.9332 17.6766 7.11701 17.8346 7.3095 17.9816C7.79006 18.3587 8.31434 18.6765 8.871 18.9281ZM11.985 18.3093C10.7362 18.3102 9.51527 17.9408 8.47649 17.2477C7.43772 16.5546 6.6278 15.5691 6.14917 14.4157C5.67054 13.2623 5.54469 11.9929 5.78755 10.768C6.0304 9.54307 6.63105 8.41769 7.51353 7.53416C8.39601 6.65063 9.52068 6.04864 10.7453 5.80433C11.9699 5.56002 13.2395 5.68436 14.3935 6.16162C15.5474 6.63888 16.5339 7.44763 17.2282 8.48558C17.9225 9.52353 18.2934 10.7441 18.294 11.9928C18.2928 13.6664 17.628 15.2712 16.4453 16.4553C15.2626 17.6394 13.6586 18.3061 11.985 18.3093ZM11.985 7.75082C11.1451 7.74978 10.3237 7.99794 9.62486 8.46389C8.92602 8.92984 8.38111 9.59263 8.0591 10.3684C7.73709 11.1441 7.65245 11.998 7.8159 12.8219C7.97934 13.6457 8.38352 14.4026 8.97729 14.9967C9.57105 15.5908 10.3277 15.9954 11.1515 16.1592C11.9753 16.3231 12.8292 16.2389 13.6051 15.9173C14.381 15.5957 15.0441 15.0512 15.5104 14.3526C15.9767 13.654 16.2253 12.8328 16.2247 11.9928C16.2236 10.8683 15.7767 9.79 14.982 8.99432C14.1873 8.19864 13.1096 7.7504 11.985 7.74782V7.75082Z" fill="#0F63D8"/>
</svg>

<svg width="24" height="24" viewBox="0 0 24 24" fill="none"><path fill="#0f63d8" d="M19.413 15.553a5 5 0 0 1-.238.435c-.058.104-.113.207-.174.305-.027.046-.05.093-.078.138h-.009a8.17 8.17 0 0 1-11.469 2.434l-.106-.078a5 5 0 0 1-.412-.295q-.315-.24-.6-.513a7 7 0 0 1-.535-.555 9 9 0 0 1-.277-.327 7 7 0 0 1-.205-.274 9 9 0 0 1-.265-.386 8 8 0 0 1-.158-.261 7 7 0 0 1-.366-.696q-.105-.224-.197-.453-.056-.142-.105-.286c-.052-.15-.103-.307-.147-.454-.03-.106-.049-.208-.082-.317a8 8 0 0 1-.1-.443c-.015-.112-.04-.23-.05-.337a9 9 0 0 1-.055-.443c-.01-.116-.023-.232-.023-.35-.012-.146-.012-.294-.012-.442 0-.112.009-.225.009-.338q.018-.39.072-.78a8.3 8.3 0 0 1 .586-2.1c.017-.041.037-.091.048-.125a.3.3 0 0 1 .06-.1q.116-.248.252-.494.067-.138.148-.27c.038-.065.063-.125.113-.196.048-.071.104-.145.154-.218q.097-.152.205-.295.142-.19.295-.372.267-.317.566-.606.11-.105.221-.205.303-.26.624-.5l.43-.295a6 6 0 0 1 .236-.147q.222-.128.443-.245a8 8 0 0 1 1.033-.445 8 8 0 0 1 1.134-.313 9 9 0 0 1 .762-.116q.25-.027.504-.037c.092-.008.185-.008.278-.008q.4-.004.799.032a8 8 0 0 1 1.602.307c.158.045.306.094.453.148q.166.06.33.128c.083.035.167.061.25.098v.012a8.17 8.17 0 0 1 4.103 10.99c-.015.031-.033.057-.047.088M8.871 18.928v-.001a7.61 7.61 0 0 0 9.588-2.95q.08-.136.156-.275c.07-.135.15-.265.218-.412a7.565 7.565 0 0 0-3.966-10.322 6 6 0 0 0-.295-.116 9 9 0 0 0-.718-.22 7.4 7.4 0 0 0-1.195-.203l-.253-.018a11 11 0 0 0-.485-.011h-.253a8 8 0 0 0-.746.069 7 7 0 0 0-.742.142 7 7 0 0 0-.728.218 6 6 0 0 0-.306.115 9 9 0 0 0-.645.294q-.321.166-.627.36-.205.128-.4.275a4 4 0 0 0-.2.147q-.295.233-.567.494-.165.167-.325.338a8 8 0 0 0-.476.573q-.234.314-.437.65-.072.12-.139.242a7.7 7.7 0 0 0-.596 1.393q-.123.365-.2.743-.048.237-.08.476-.02.139-.034.276c-.015.148-.032.295-.032.443-.009.1-.009.202-.009.304 0 .14.012.28.012.42q.02.365.074.727c.02.101.036.197.054.306q.042.209.093.416.035.141.075.285.063.212.14.423.044.128.094.258c.056.141.117.279.175.424q.055.123.117.242.108.202.22.398c.051.082.098.161.149.24q.116.181.244.358c.062.085.107.156.189.253.081.098.173.203.252.295s.168.19.247.273c.08.082.142.14.245.238q.261.254.55.474a7.6 7.6 0 0 0 1.562.946m3.114-.619a6.313 6.313 0 1 1 6.309-6.316 6.32 6.32 0 0 1-6.309 6.316m0-10.558a4.245 4.245 0 1 0 2.997 1.243 4.25 4.25 0 0 0-2.997-1.246z"/></svg>
